X:50
T:Miller & Collier, The
M:6/8
L:1/8
B:Thompson's Compleat Collection of 200 Favourite Country Dances, vol. 2 (London, 1765)
Z:Transcribed and edited by Flynn Titford-Mock, 2007
Z:abc's:AK/Fiddler's Companion
K:A
(c/B/) | AaA AaA | edc "tr"B2A | def edc | BFA {A}GFE | AaA AaA | edc "tr"B2A | def edc | BAG A2 :|
|: (G/F/) | EeE EeE | BAG "tr"F2E | A>BA A>ce | e>dc B3 | AaA AaA | edc "tr"B2A | def edc | BAG A2 :|

